X: 1
T: the Ash Grove  [G]
C: Welsh
R: Waltz
M: 3/4
L: 1/8
K: G
D2 |\
"G"G2 B2 dc | "(Em)"B2 G2 G2 | "Am"A2 cB AG | "D7"F2 D2 D2 |\
"G"G2 BA GF | "C"E2 C2 E2 | "D7"D2 G2 F2 | "G"G4 :|
Bc |\
"G"d2 Bc de | d2 c2 B2 | "Am"c2 AB cd | c2 B2 A2 |\
"G"B2 GA Bc | "Em"B2 A2 G2 | "D"F2 d2 "A"^c2 | "D"d4 D2 |
"G"G2 B2 dc | B2 G2 G2 | "Am"A2 cB AG | "D7"F2 D2 D2 |\
"G"GA BA GF | "C"E2 C2 E2 | "D7"D2 G2 F2 | "G"G4 |]
